X: 103
T: The Pretty Maid Milking Her Cow
N:"Slow" "2nd Setting."
B:O'Neill's 103
Z:Transcribed by henrik.norbeck@mailbox.swipnet.se
M:3/4
L:1/8
K:Am
(AB) | (c2 e2 c2) | (B2 d2 B2) | (A2 G4- | G4) (AB) |\
(c2 e2 c2) | (B2 d2 B2) | A6- | A4 (AB) |
c2 e2 c2 | B2 g2 B2 | A2 G4- | G4 (e>d) |\
(c2 B2 A2) | (E2 ^F2 ^G2) | A6- | A4 ||
G2 | c3 (de^f) | (g2 e2 c2) | (B2 G4- | G4) G2 |\
c3 (de^f) | {a}g2 e2 ^g2 | a6- | a4 (ba) |
g3 (fed) | B2 g2 B2 | A2 G4- | G4 (ed) |\
c3 (BAG) | (E2 ^F2 ^G2) | A6- | A4 |]


